X:203
T:Michael Turner's Waltz
R:waltz 32
S:Turner MS
B:English Choice, Nick Barber, pub mally.com
M:3/4
L:1/8
Q:1/4=120
K:G
|:DGA|"G"B2BD"D"cD|"G"d4gf|
"C"e3fge|"G"d3DGA|
"G"B2BD"D"cD|"Bm"d3ecA|
"C"G2GB"D"AF|"G"G3:|
:zAB|"C"c3dcB|"D"A4Bc|
"Bm"d3edc|"G"B4gf|
"C"e3fge|"Bm"d3DGA|
"C"B2Bc"D"AB|"G"G3:|]
W:chords by PJH

